modules/themify-icons/icons/stamp.svg

<?xml version="1.0" encoding="utf-8"?>
<!-- Generated by IcoMoon.io -->
<!DOCTYPE svg PUBLIC "-//W3C//DTD SVG 1.1//EN" "http://www.w3.org/Graphics/SVG/1.1/DTD/svg11.dtd">
<svg version="1.1" xmlns="http://www.w3.org/2000/svg" xmlns:xlink="http://www.w3.org/1999/xlink" width="17" height="17" viewBox="0 0 17 17">
<g>
</g>
	<path d="M17 11.918c0-1.046-0.852-1.898-1.897-1.898h-4.396l1.26-4.517 0.019-3.52c-0.002-1.075-0.915-1.983-1.996-1.983h-2.991c-1.083 0-1.997 0.908-1.997 1.983v3.361l1.278 4.676h-4.383c-1.045 0-1.897 0.852-1.897 1.898v4.082h1v1h15v-1h1v-4.082zM16 15h-15v-3.082c0-0.495 0.402-0.898 0.897-0.898h5.697l-1.592-5.744v-3.293c0-0.524 0.466-0.983 0.997-0.983h2.991c0.529 0 0.994 0.459 0.994 0.983v3.317l-1.594 5.72h5.713c0.495 0 0.897 0.403 0.897 0.898v3.082z" fill="#000000" />
</svg>

<svg xmlns="http://www.w3.org/2000/svg" width="17" height="17"><path d="M17 11.918a1.9 1.9 0 0 0-1.897-1.898h-4.396l1.26-4.517.019-3.52C11.984.908 11.071 0 9.99 0H6.999C5.916 0 5.002.908 5.002 1.983v3.361L6.28 10.02H1.897A1.9 1.9 0 0 0 0 11.918V16h1v1h15v-1h1v-4.082zM16 15H1v-3.082c0-.495.402-.898.897-.898h5.697L6.002 5.276V1.983c0-.524.466-.983.997-.983H9.99c.529 0 .994.459.994.983V5.3L9.39 11.02h5.713c.495 0 .897.403.897.898V15z"/></svg>
